!!!!SEGMENT: pl-kk--kk-i-382--043-003_singenberger-johann-baptist--msza-na-czesc-sw-stanislawa-credo.krn
!!!cenid: 18xx:1539
!!!COM: Singenberger, Johann Baptist
!!!COM-rismID:
!!!CDT: 1848-1924
!!!CNT:
!!!OPR: Msza na cześć św. Stanisława
!!!OTL: Credo
!!!OMV: 003
!!!PDT:
!!!AGN: Sacred; Mass
!!!SMS-siglum: PL-Kk
!!!SMS-shelfmark: Kk.I.382
!!!SMS-shelfwork: 029-003 M
!!!SMS-variant:
!!!SMS-altvar:
!!!NIFC-rismSourceID: 1001140237
!!!NIFC-islandoraID: pl-kk:6162
!!!URL-pdf-islandora: https://repozytorium.nifc.pl/islandora/object/pl-kk%3A6162/datastream/PDF/view
!!!URL-scan: https://polish.musicsources.pl/pl/lokalizacje/galeria/rekopisy/5994 @EN{Scan on Polish Music Herritage in Open Access Website} @PL{Skany w portalu Dziedzictwo Muzyki Polskiej w otwartym dostępie}
!!!ONB-nifc: UWAGA: obsada: S/T 1. Skan 0034-0035,0137, 0286 (Agnus). Osobne części Mszy: Kyrie, Gloria, Credo, Sanctus, Benedictus, Agnus Dei
!!!AIN: 1 empty 2 tenor
!!!key:
**kern	**text	**dynam	**kern	**text	**dynam	**kern	**text	**dynam
*part3	*part3	*part3	*part2	*part2	*part2	*part1	*part1	*part1
*staff3	*staff3	*	*staff2	*staff2	*	*staff1	*staff1	*
*Iempty	*	*	*Itenor	*	*	*Itenor	*	*
*I"Bas	*	*	*I"Tenor II	*	*	*I"Tenor I	*	*
*I'B	*	*	*I'T 2	*	*	*I'T 1	*	*
*clefF4	*	*	*clefG2	*	*	*clefG2	*	*
*k[b-]	*	*	*k[b-]	*	*	*k[b-]	*	*
*F:	*	*	*F:	*	*	*F:	*	*
*M4/4	*	*	*M4/4	*	*	*M4/4	*	*
*met(c)	*	*	*met(c)	*	*	*met(c)	*	*
*	*	*	*	*	*	*	*	*below
=1	=1	=1	=1	=1	=1	=1	=1	=1
*	*	*	*2\right	*	*	*2\right	*	*
!	!	!	!LO:TX:a:t=Sub Dominanta	!	!	!LO:SIC:o:s:v=all\right - global	!	!
!LO:TX:t=P:problem=2/left&colon; global	!	!	!LO:TX:t=P:problem=partia na stronie 137	!	!	!	!	!
!LO:TX:a:t=Sub Dominanta	!	!	!	!	!	!	!	!
!LO:TX:rj:a:B:t=Moderato	!	!LO:DY:rj	!LO:TX:rj:a:B:t=Moderato	!	!LO:DY:rj:a	!LO:TX:rj:a:B:t=Moderato	!	!LO:DY:rj
2BB-/	Pa-	mf	2b-\	Pa-	mf	2dd\	Pa-	mf
4F\	-trem	.	4a/	-trem	.	4cc\	-trem	.
4D\	om-	.	4a/	om-	.	4ff\	om-	.
=2	=2	=2	=2	=2	=2	=2	=2	=2
!	!	!	!	!	!	!LO:TX:a:t=Sub Dominanta	!	!
4C/	-ni-	.	4a/	-ni-	.	4ee\	-ni-	.
4BB-/	-po-	.	4b-\	-po-	.	4dd\	-po-	.
*2\right	*	*	*	*	*	*	*	*
2F\	-ten-	.	(<4b-\	-ten-	.	2cc\	-ten-	.
.	.	.	4a/)	.	.	.	.	.
=3	=3	=3	=3	=3	=3	=3	=3	=3
4E\	-tem	.	4g/	-tem	.	4cc\	-tem	.
4F\	fac-	.	4a/	fac-	.	4cc\	fac-	.
4D\	-to-	.	4bn\	-to-	.	4dd\	-to-	.
4C/	-rem	.	4cc\	-rem	.	4ee\	-rem	.
=4	=4	=4	=4	=4	=4	=4	=4	=4
4D\	coe-	.	(8a/L	coe-	.	4ff\	coe-	.
.	.	.	8bn/J)	.	.	.	.	.
8E\	-li	.	8cc\	-li	.	8ee\	-li	.
!	!	!	!	!	!LO:HP:a	!	!	!
8E\	et	.	8cc\	et	>	8cc\	et	.
!LO:PB:g=original	!	!	!	!	!	!	!	!
(4F\	ter-	.	(4cc\	ter-	.	2dd\	ter-	.
4G\)	.	.	4b\)	.	]	.	.	.
!	!	!	!LO:LB:g=original	!	!	!LO:LB:g=original	!	!
=5	=5	=5	=5	=5	=5	=5	=5	=5
4C/	-rae	.	4cc\	-re	.	4cc\	-rae	.
!	!	!	!LO:TX:t=P:problem=2/left&colon; global	!	!	!	!	!
2F\	vi-	.	2a/	vi-	.	2cc\	vi-	.
4F\	-si-	.	4a/	-si-	.	4cc\	-si-	.
=6	=6	=6	=6	=6	=6	=6	=6	=6
4.B-\	-bi-	.	4.b-\	-bi-	.	4.dd\	-bi-	.
8B-\	-li-	.	8b-\	-li-	.	8dd\	-li-	.
4F\	-um	.	4a/	-um	.	4cc\	-um	.
8G\	et	.	8g/	et	.	8b-\	et	.
8G\	in-	.	8g/	in-	.	8b-\	in-	.
=7	=7	=7	=7	=7	=7	=7	=7	=7
8G\	-vi-	.	8g/	-vi-	.	8b-\	-vi-	.
8G\	-si-	.	8g/	-si-	.	8b-\	-si-	.
8G\	-bi-	.	8g/	-bil-	.	8b-\	-bil-	.
8G\	-li-	.	8g/	-li-	.	8b-\	-li-	.
4D\	-um	.	4f/	-um	.	4a/	-um	.
8C/	et	.	8e/	et	.	8cc\	et	.
8C/	in	.	8e/	in	.	8cc\	in	.
=8	=8	=8	=8	=8	=8	=8	=8	=8
8AA/	u-	.	8f/	u-	.	8cc\	u-	.
8AA/	-num	.	8f/	-num	.	8cc\	-num	.
8D/	Do-	.	8f/	Do-	.	8b-/	Do-	.
!LO:TX:t=P:problem=dźwięk niewidoczny	!	!	!	!	!	!	!	!
8ryy	.	.	8f/	mi-	.	8a/	mi-	.
!LO:LB:g=original	!	!	!LO:LB:g=original	!	!	!LO:LB:g=original	!	!
4BB-/	-num	.	4f/	-num	.	4g/	-num	.
8C/	Je-	.	8e/	Je-	.	8g/	Je-	.
8C/	-sum	.	8e/	-sum	.	8g/	-sum	.
=9	=9	=9	=9	=9	=9	=9	=9	=9
!	!	!	!	!	!	!LO:TX:t=P:problem=2/left&colon; global	!	!
2F\	Chris-	.	2f/	Chris-	.	2f/	Chris-	.
2F\	-tum	.	2f/	-tum	.	2f/	-tum	.
=10||	=10||	=10||	=10||	=10||	=10||	=10||	=10||	=10||
*M3/4	*	*	*M3/4	*	*	*M3/4	*	*
!	!	!LO:DY:rj:a	!	!	!LO:DY:rj	!	!	!LO:DY:rj:a
2D\	Et	mf	2a/	Et	mf	2ff\	Et	mf
4D\	in	.	4a/	in	.	4ff\	in	.
=11	=11	=11	=11	=11	=11	=11	=11	=11
4.G\	Spi-	.	4.b-\	spi-	.	4.dd\	Spi-	.
8G\	-ri-	.	8b-\	-ri-	.	8dd\	-ri-	.
4F\	-tum	.	4a/	-tum	.	4ff\	-tum	.
=12	=12	=12	=12	=12	=12	=12	=12	=12
2E\	san-	.	2g/	San-	.	2cc\	san-	.
4F\	-ctum	.	4a/	-ctum	.	4cc\	-ctum	.
=13	=13	=13	=13	=13	=13	=13	=13	=13
2B-\	Do-	.	2b-\	Do-	.	2dd\	Do-	.
4BB-/	-mi-	.	4b-\	-mi-	.	4dd\	-mi-	.
=14	=14	=14	=14	=14	=14	=14	=14	=14
4F\	-num	.	4a/	-num	.	4cc\	-num	.
4F\	et	.	4f/	et	.	4f/	et	.
4F\	vi-	.	4f/	vi-	.	4a/	vi-	.
!LO:LB:g=original	!	!	!LO:LB:g=original	!	!	!LO:LB:g=original	!	!
=15	=15	=15	=15	=15	=15	=15	=15	=15
2F\	-vi-	.	2a/	-vi-	.	2cc\	-vi-	.
4E\	-fi-	.	4g/	-fi-	.	4cc\	-fi-	.
=16	=16	=16	=16	=16	=16	=16	=16	=16
2.D\	-can-	.	(<8f/L	-can-	.	2.dd\	-can-	.
.	.	.	8g/J	.	.	.	.	.
.	.	.	4a/	.	.	.	.	.
.	.	.	4bn\)	.	.	.	.	.
=17	=17	=17	=17	=17	=17	=17	=17	=17
4C/	-tem	.	4cc\	-tem	.	4ee\	-tem	.
4.c\	qui	.	4cc\	qui	.	4ee\	qui	.
.	.	.	4cc\	ex	.	4ee\	ex	.
8B-\	ex	.	.	.	.	.	.	.
=18	=18	=18	=18	=18	=18	=18	=18	=18
2A\	Pa-	.	2cc\	Pa-	.	2ff\	Pa-	.
4G\	-tre	.	8cc\L	-tre	.	4ee\	-tre	.
.	.	.	8b-\J	.	.	.	.	.
=19	=19	=19	=19	=19	=19	=19	=19	=19
(4F\	fi-	.	(4a/	fi-	.	(4dd\	fi-	.
4E\)	.	.	4g/)	.	.	4cc\)	.	.
4D\	-li-	.	4f/	-li-	.	4b-\	-li-	.
=20	=20	=20	=20	=20	=20	=20	=20	=20
4F\	-o-	.	4f/	-o-	.	4a/	-o-	.
4D\	-que	.	4f/	-que	.	4b-\	-que	.
4AA/	pro-	.	4f/	pro-	.	4cc\	pro-	.
=21	=21	=21	=21	=21	=21	=21	=21	=21
!	!	!	!	!	!LO:HP:a	!	!	!
(2.BB-/	-ce-	.	(2.f/	-ce-	>]	(<2.dd\	-ce-	.
=22	=22	=22	=22	=22	=22	=22	=22	=22
2.C/)	.	.	2.e/)	.	.	2.cc\)	.	.
!	!	!	!LO:LB:g=original	!	!	!	!	!
=23	=23	=23	=23	=23	=23	=23	=23	=23
2F\	-dit	.	2f/	-dit	.	2a/	-dit	.
4r	.	.	4r	.	.	4r	.	.
!LO:LB:g=original	!	!	!	!	!	!LO:LB:g=original	!	!
=24||	=24||	=24||	=24||	=24||	=24||	=24||	=24||	=24||
*M4/4	*	*	*M4/4	*	*	*M4/4	*	*
*met(c)	*	*	*met(c)	*	*	*met(c)	*	*
!	!	!	!	!	!	!	!	!LO:DY:a
2r	.	.	2r	.	f	2r	.	f
.	.	f	.	.	.	.	.	.
2D\	Et	.	2a/	Et	.	2ff\	Et	.
=25	=25	=25	=25	=25	=25	=25	=25	=25
(4G\	vi-	.	2b-\	vi-	.	(4ee\	vi-	.
4F\)	.	.	.	.	.	4dd\)	.	.
4E\	-tam	.	4b-\	-tam	.	4cc\	-tam	.
4F\	ven-	.	4a/	ven-	.	4cc\	ven-	.
=26	=26	=26	=26	=26	=26	=26	=26	=26
(<4BB-/	-tu-	.	2b-\	-tu-	.	2dd\	-tu-	.
4D\)	.	.	.	.	.	.	.	.
2F\	-ri	.	2a/	-ri	.	2cc\	-ri	.
=27	=27	=27	=27	=27	=27	=27	=27	=27
4F\	sae-	.	4f/	sae-	.	4a/	sae-	.
4D\	-cu-	.	4f/	-cu-	.	4b-\	-cu-	.
2C/	-li	.	2e/	-li	.	2cc\	-li	.
=28	=28	=28	=28	=28	=28	=28	=28	=28
!	!	!LO:DY:rj	!	!	!LO:DY:rj:a	!	!	!LO:DY:a
(<4.c\	a-	ff	(2.cc\	a-	ff	(2.cc\	a-	ff
8B-\	.	.	.	.	.	.	.	.
4A\	.	.	.	.	.	.	.	.
4G\	.	.	4b-\	.	.	8dd\L	.	.
.	.	.	.	.	.	8ee\J	.	.
=29	=29	=29	=29	=29	=29	=29	=29	=29
4F\	.	.	4a/	.	.	2.ff\	.	.
4E\	.	.	4g/	.	.	.	.	.
!LO:LB:g=original	!	!	!	!	!	!	!	!
4D\	.	.	2f/	.	.	.	.	.
4C/	.	.	.	.	.	4ee\	.	.
!	!	!	!LO:LB:g=original	!	!	!	!	!
=30	=30	=30	=30	=30	=30	=30	=30	=30
4BB-/	.	.	2.f/)	.	.	4dd\	.	.
4AA/	.	.	.	.	.	4cc\	.	.
2BB-/)	.	.	.	.	.	2dd\)	.	.
.	.	.	[4b-\	.	.	.	.	.
=31	=31	=31	=31	=31	=31	=31	=31	=31
1F/ 1FF/;	-men	.	4b-\]	.	.	1cc\;	-men	.
.	.	.	8a/L	.	.	.	.	.
.	.	.	8g/J	.	.	.	.	.
.	.	.	2a/	-men	.	.	.	.
==	==	==	==	==	==	==	==	==
*-	*-	*-	*-	*-	*-	*-	*-	*-
!!!system-decoration: [([(s1,s2)]s3)]
!!!RDF**kern: > = above
!!!RDF**kern: < = below
!!!EED: Leszek Kubiak
!!!EEV: 2021-02-09
!!!ENC: Tomasz Grochalski
!!!END: 2021-01-30
